co/message_writing.svg

<svg viewBox="0 0 24 24" fill="none" xmlns="http://www.w3.org/2000/svg" height="1em" width="1em">
  <path d="M9 9H7V11H9V9Z" fill="black"/>
  <path d="M11 9H13V11H11V9Z" fill="black"/>
  <path d="M17 9H15V11H17V9Z" fill="black"/>
  <path d="M3 5V21L7.8 17.4C8.14582 17.1396 8.56713 16.9992 9 17H19C20.1046 17 21 16.1046 21 15V5C21 3.89543 20.1046 3 19 3H5C3.89543 3 3 3.89543 3 5ZM5 17V5H19V15H8.334C7.90107 14.9988 7.47964 15.1393 7.134 15.4L5 17Z" fill="black"/>
</svg>

<svg viewBox="0 0 24 24" fill="none" xmlns="http://www.w3.org/2000/svg" height="1em" width="1em">
  <path d="M9 9H7v2h2V9Zm2 0h2v2h-2V9Zm6 0h-2v2h2V9Z" fill="#000"/>
  <path d="M3 5v16l4.8-3.6c.346-.26.767-.4 1.2-.4h10a2 2 0 0 0 2-2V5a2 2 0 0 0-2-2H5a2 2 0 0 0-2 2Zm2 12V5h14v10H8.334a1.984 1.984 0 0 0-1.2.4L5 17Z" fill="#000"/>
</svg>
